X: 131206
T: Monastereden
Z: B.Black
S: "Lamh ar Lamh" v1, tr 2B 
D: Carty, Hanley, McGowan, Gaffney
L: 1/8
M: 6/8
R: jig
K: G
GFG dBB|edB dBA|GFG dBB|edB AFD|
GFG dBB|edB def|gfe dBA|B2e dBA :|
gfg bge|fef afd|gfg bge|edB GBd|
gfg bge|fef a2a|bag agf|g2e edB :|
